img/partners-list-2.svg

<svg width="21" height="24" viewBox="0 0 21 24" fill="none" xmlns="http://www.w3.org/2000/svg">
<g clip-path="url(#clip0_3993_15)">
<path d="M0 24H21V6.54545L13.8158 0H0V24Z" fill="#F35A05"/>
<path d="M6.35416 8.66667L6.24258 7.67291C5.73665 7.72972 5.35416 8.15756 5.35416 8.66667H6.35416ZM5.35416 16.3333C5.35416 16.8856 5.80187 17.3333 6.35416 17.3333C6.90644 17.3333 7.35416 16.8856 7.35416 16.3333H5.35416ZM4.86978 13.5C4.3175 13.5 3.86978 13.9477 3.86978 14.5C3.86978 15.0523 4.3175 15.5 4.86978 15.5V13.5ZM7.83853 15.5C8.39082 15.5 8.83853 15.0523 8.83853 14.5C8.83853 13.9477 8.39082 13.5 7.83853 13.5V15.5ZM12.2812 12.5C12.2812 15.5475 9.83927 18 6.84895 18V20C10.9635 20 14.2812 16.6322 14.2812 12.5H12.2812ZM6.84895 18C3.85862 18 1.41666 15.5475 1.41666 12.5H-0.583344C-0.583344 16.6322 2.73436 20 6.84895 20V18ZM1.41666 12.5C1.41666 9.45254 3.85862 7 6.84895 7V5C2.73436 5 -0.583344 8.36776 -0.583344 12.5H1.41666ZM6.84895 7C9.83927 7 12.2812 9.45254 12.2812 12.5H14.2812C14.2812 8.36776 10.9635 5 6.84895 5V7ZM5.35416 8.66667V12H7.35416V8.66667H5.35416ZM5.35416 12V16.3333H7.35416V12H5.35416ZM6.35416 12C6.13505 12.9757 6.13539 12.9758 6.13575 12.9759C6.13588 12.9759 6.13625 12.976 6.13652 12.976C6.13705 12.9761 6.13763 12.9763 6.13826 12.9764C6.13952 12.9767 6.14097 12.977 6.14259 12.9774C6.14585 12.9781 6.14984 12.9789 6.15454 12.9799C6.16395 12.9819 6.17621 12.9845 6.19116 12.9875C6.22102 12.9935 6.26174 13.0012 6.3118 13.0099C6.41157 13.0271 6.55033 13.048 6.71564 13.0651C7.03899 13.0983 7.49762 13.1201 7.97752 13.0528C8.44695 12.9869 9.03339 12.8223 9.51548 12.4028C10.0357 11.9501 10.3229 11.2981 10.3229 10.5H8.32291C8.32291 10.7852 8.23903 10.8624 8.2026 10.8941C8.12805 10.9589 7.9723 11.0339 7.69954 11.0722C7.43726 11.109 7.1537 11.0996 6.92041 11.0756C6.8074 11.0639 6.71423 11.0497 6.65164 11.039C6.62052 11.0336 6.59746 11.0291 6.58383 11.0264C6.57704 11.0251 6.57263 11.0241 6.5708 11.0237C6.56989 11.0236 6.56962 11.0235 6.57002 11.0236C6.57022 11.0236 6.57059 11.0237 6.57113 11.0238C6.5714 11.0239 6.57171 11.024 6.57207 11.024C6.57224 11.0241 6.57254 11.0241 6.57263 11.0242C6.57294 11.0242 6.57326 11.0243 6.35416 12ZM10.3229 10.5C10.3229 9.70242 10.0382 9.05609 9.55986 8.58614C9.10898 8.14318 8.55085 7.91937 8.08347 7.80129C7.60918 7.68147 7.15268 7.65152 6.82738 7.64848C6.66161 7.64693 6.52222 7.65233 6.42168 7.65838C6.37125 7.66141 6.33014 7.66464 6.29988 7.6673C6.28474 7.66863 6.27227 7.66982 6.26267 7.67079C6.25786 7.67127 6.25377 7.6717 6.25042 7.67206C6.24874 7.67223 6.24725 7.6724 6.24594 7.67254C6.24529 7.67261 6.24468 7.67268 6.24412 7.67274C6.24384 7.67277 6.24345 7.67281 6.24331 7.67283C6.24294 7.67287 6.24258 7.67291 6.35416 8.66667C6.46574 9.66042 6.4654 9.66046 6.46507 9.6605C6.46497 9.66051 6.46466 9.66054 6.46447 9.66056C6.46409 9.66061 6.46375 9.66064 6.46346 9.66068C6.46287 9.66074 6.46245 9.66078 6.4622 9.66081C6.4617 9.66086 6.46186 9.66085 6.46268 9.66076C6.46431 9.6606 6.46851 9.66019 6.47511 9.65961C6.48834 9.65844 6.51101 9.65662 6.54176 9.65477C6.60357 9.65105 6.69612 9.64734 6.80867 9.64839C7.04001 9.65056 7.3257 9.67269 7.5936 9.74037C7.8684 9.8098 8.05245 9.90891 8.15822 10.0128C8.23651 10.0897 8.32291 10.2142 8.32291 10.5H10.3229ZM4.86978 15.5H7.83853V13.5H4.86978V15.5Z" fill="white"/>
</g>
<defs>
<clipPath id="clip0_3993_15">
<rect width="21" height="24" fill="white"/>
</clipPath>
</defs>
</svg>

<svg xmlns="http://www.w3.org/2000/svg" width="21" height="24" fill="none"><g clip-path="url(#a)"><path fill="#F35A05" d="M0 24h21V6.545L13.816 0H0v24Z"/><path fill="#fff" d="m6.354 8.667-.111-.994a1 1 0 0 0-.889.994h1Zm-1 7.666a1 1 0 1 0 2 0h-2ZM4.87 13.5a1 1 0 1 0 0 2v-2Zm2.969 2a1 1 0 1 0 0-2v2Zm4.442-3c0 3.047-2.442 5.5-5.432 5.5v2c4.114 0 7.432-3.368 7.432-7.5h-2ZM6.85 18c-2.99 0-5.432-2.453-5.432-5.5h-2c0 4.132 3.317 7.5 7.432 7.5v-2Zm-5.432-5.5c0-3.047 2.442-5.5 5.432-5.5V5C2.734 5-.583 8.368-.583 12.5h2ZM6.849 7c2.99 0 5.432 2.453 5.432 5.5h2c0-4.132-3.318-7.5-7.432-7.5v2ZM5.354 8.667V12h2V8.667h-2Zm0 3.333v4.333h2V12h-2Zm1 0-.218.976h.002l.005.001.012.003a3.14 3.14 0 0 0 .157.03c.1.017.238.038.404.055.323.033.782.055 1.262-.012.469-.066 1.055-.23 1.537-.65.52-.453.808-1.105.808-1.903h-2c0 .285-.084.362-.12.394-.075.065-.23.14-.503.178a3.344 3.344 0 0 1-.78.004 4.14 4.14 0 0 1-.336-.05c-.007 0-.011-.002-.013-.002H6.57h.002L6.355 12Zm3.969-1.5c0-.798-.285-1.444-.763-1.914-.451-.443-1.01-.667-1.477-.785-.474-.12-.93-.15-1.256-.153a5.89 5.89 0 0 0-.577.024h-.006l.11.995c.112.993.111.993.111.994h-.002c-.001 0-.001 0 0 0a1.193 1.193 0 0 1 .079-.006c.062-.004.154-.008.267-.007.231.003.517.025.785.092.274.07.458.169.564.273.079.077.165.201.165.487h2Zm-5.453 5h2.969v-2h-2.97v2Z"/></g><defs><clipPath id="a"><path fill="#fff" d="M0 0h21v24H0z"/></clipPath></defs></svg>
